X:1
T:Guayaquil, 11.11.11.11 D
T:Guayaquil, 11.11.11.11 D
T:George Coles Stebbins, 1917
T:Public Domain Courtesy of the Cyber Hymnal™
C:George Coles Stebbins, 1917
Z:Public Domain
Z:Courtesy of the Cyber Hymnal™
%%score ( 1 2 ) ( 3 4 )
L:1/8
Q:1/4=97
M:4/4
K:Ab
V:1 treble 
V:2 treble 
V:3 bass 
V:4 bass 
V:1
 [Ec]>[Fd] | [Ec]2 [DB]2 [DF]2 [DG]2 | [DF][CE] [CE]>[=B,=D] [CE]2 | [EA][EB] | %4
 [EA]2 [EG]2 [EG][EA][EB]E | [EA]2 [EB]2 !fermata![Ec]2 [Ec]>[Fd] | [Ec]2 [DB]2 [DF]2 [DG]2 | %7
 [DF][CE] [CE]>[=B,=D] [CE]2 [CA]>[Ec] | [DB]2 [DF]2 [=DA][DG][DA][DB] | %9
 [Ec]2 [DB]2 !fermata![CA]2 [Ec]>[Ed] | [Ae]4 [EA]2 [EB][EA] | %11
 [EG][Gd] [Gd]>[^Fc] [Gd]2 [Gd]>[Ge] | [Gd]4 [DF]2 [EG][DF] | %13
 [CE][Ec] [Ec]>[=D=B] [Ec]2 [Ec]>[F=d] | [Ae]4 [EA]2 [EB][Ec] | [_Ge][Fd] [Fd]>[=Ec] [Fd]4 | %16
 [Fd][EG][EA][EB] [Ec][Ed][Ae]!fermata![Af] | [Ec]2 [DB]2 !fermata![CA]2 |] %18
V:2
 x2 | x8 | x6 | x2 | x7 E | x8 | x8 | x8 | x8 | x8 | x8 | x8 | x8 | x8 | x8 | x8 | x8 | x6 |] %18
V:3
 [A,,A,]>[A,,A,] | [E,G,]2 [E,G,]2 [E,A,]2 [E,B,]2 | [A,,A,][A,,A,] [A,,A,]>[A,,A,] [A,,A,]2 | %3
 [A,,C][A,,D] | [E,C]2 [E,B,]2 [E,B,][E,C][E,D][D,B,] | [C,A,]2 [E,G,]2 !fermata!A,2 A,>A, | %6
 [E,G,]2 [E,G,]2 [E,A,]2 [E,B,]2 | [A,,A,][A,,A,] [A,,A,]>[A,,A,] [A,,A,]2 [A,,E,]>[A,,A,] | %8
 [D,F,]2 [D,B,]2 [B,,F,][B,,=E,][B,,F,][B,,A,] | [E,A,]2 [E,G,]2 !fermata![A,,A,]2 A,>[A,B,] | %10
 [A,C]2 [A,C]2 [A,C]3 [A,C] | [E,B,][E,B,] [E,B,]>[E,=A,] [E,B,]2 [E,B,]>[E,C] | %12
 [E,B,]2 [E,B,]2 [E,G,]3 [E,G,] | [A,,A,][A,,A,] [A,,A,]>[A,,A,] [A,,A,]2 A,>[A,B,] | %14
 [A,C]2 [A,C]2 [A,C]3 A, | [D,A,][D,A,] [D,A,]>[D,A,] [D,A,]4 | %16
 [D,B,][E,B,][F,B,][G,B,] A,[A,B,][A,C]!fermata![D,D] | [E,A,]2 [E,G,]2 !fermata![A,,A,]2 |] %18
V:4
 x2 | x8 | x6 | x2 | x8 | x4 A,2 A,>A, | x8 | x8 | x8 | x6 A,3/2 x/ | x8 | x8 | x8 | x6 A,3/2 x/ | %14
 x7 A, | x8 | x4 A, x3 | x6 |] %18

